packages/kaspersky-hexa-ui-icons/src/iconsSVGs/16/Weibo.svg

<svg width="16" height="16" viewBox="0 0 16 16" fill="none" xmlns="http://www.w3.org/2000/svg">
<path d="M13.3345 3.9978C12.6087 3.27202 11.5548 3.07266 10.6482 3.40234C10.4105 3.48879 10.1477 3.36615 10.0612 3.12842C9.97478 2.89069 10.0974 2.6279 10.3351 2.54143C11.5637 2.09468 12.9955 2.36333 13.9822 3.35006C14.9689 4.33677 15.2376 5.76858 14.7908 6.99713C14.7044 7.23486 14.4416 7.3575 14.2038 7.27105C13.9661 7.1846 13.8435 6.9218 13.9299 6.68407C14.2596 5.77748 14.0602 4.72357 13.3345 3.9978Z" fill="black"/>
<path d="M12.0515 5.27935C11.8266 5.05446 11.4997 4.99197 11.2177 5.09455C10.9799 5.18101 10.7171 5.05838 10.6307 4.82064C10.5442 4.58291 10.6669 4.32011 10.9046 4.23366C11.5086 4.01399 12.2134 4.14575 12.6993 4.6316C13.1851 5.11745 13.3169 5.82221 13.0972 6.42625C13.0107 6.66398 12.7479 6.78662 12.5102 6.70017C12.2725 6.61372 12.1498 6.35092 12.2363 6.11319C12.3389 5.83109 12.2764 5.50423 12.0515 5.27935Z" fill="black"/>
<path fill-rule="evenodd" clip-rule="evenodd" d="M6.89969 12.0736C8.07925 11.6871 8.77103 10.5667 8.44482 9.57105C8.1186 8.57542 6.89792 8.08159 5.71836 8.46807C4.5388 8.85455 3.84702 9.97497 4.17323 10.9706C4.49946 11.9662 5.72013 12.4601 6.89969 12.0736ZM5.83448 11.296C6.26331 11.1555 6.51481 10.7482 6.39621 10.3862C6.27761 10.0242 5.83384 9.84472 5.40501 9.98523C4.97618 10.1257 4.72468 10.5331 4.84328 10.895C4.96188 11.257 5.40565 11.4365 5.83448 11.296ZM7.05994 9.78567C7.1053 9.92407 7.00913 10.0798 6.84515 10.1335C6.68118 10.1873 6.51147 10.1186 6.46613 9.98022C6.42078 9.84182 6.51695 9.68606 6.68093 9.63232C6.84491 9.5786 7.0146 9.64724 7.05994 9.78567Z" fill="black"/>
<path fill-rule="evenodd" clip-rule="evenodd" d="M7.51231 4.04365C5.72572 2.79299 0.874253 7.2603 1.00249 10.1179C1.07574 11.7499 2.66205 13.1399 4.59933 13.4888C5.10042 13.5937 5.67012 13.6606 6.28819 13.6674C7.36222 13.6792 8.58679 13.5097 9.85833 13.0401C12.477 12.1937 13.2963 10.535 13.1999 9.46452C13.0688 8.00835 11.9012 7.68176 11.2155 7.55269C11.401 7.27843 11.8311 6.57459 11.2155 5.83447C10.5999 5.09435 9.0466 5.23082 7.73062 6.02807C8.2629 5.16168 8.05143 4.42103 7.51231 4.04365ZM10.8616 9.54422C11.0166 11.0848 9.23885 12.5252 6.89076 12.7616C4.54266 12.9979 2.51346 11.9406 2.35839 10.4001C2.20333 8.85956 3.98114 7.41911 6.32922 7.18277C8.67732 6.94642 10.7065 8.00368 10.8616 9.54422Z" fill="black"/>
</svg>

<svg xmlns="http://www.w3.org/2000/svg" width="16" height="16" fill="none" viewBox="0 0 16 16"><path fill="#000" d="M13.3345 3.9978c-.7258-.7258-1.7797-.9251-2.6863-.5955a.458.458 0 0 1-.3131-.8609c1.2286-.4467 2.6604-.178 3.6471.8087s1.2554 2.4185.8086 3.647a.458.458 0 1 1-.8609-.313c.3297-.9066.1303-1.9605-.5954-2.6863"/><path fill="#000" d="M12.0515 5.2794a.794.794 0 0 0-.8338-.1848.458.458 0 1 1-.3131-.861c.604-.2196 1.3088-.0879 1.7947.398s.6176 1.1906.3979 1.7947a.458.458 0 0 1-.8609-.3131.794.794 0 0 0-.1848-.8338"/><path fill="#000" fill-rule="evenodd" d="M6.8997 12.0736c1.1795-.3865 1.8713-1.5069 1.5451-2.5026-.3262-.9956-1.5469-1.4894-2.7264-1.103S3.847 9.975 4.1732 10.9707s1.547 1.4895 2.7265 1.103m-1.0652-.7776c.4288-.1405.6803-.5478.5617-.9098s-.5624-.5415-.9912-.401-.6803.5479-.5617.9098.5623.5415.9912.401m1.2254-1.5103c.0454.1384-.0508.2941-.2147.3478-.164.0538-.3337-.0149-.379-.1533s.0507-.2941.2147-.3479c.164-.0537.3337.015.379.1534" clip-rule="evenodd"/><path fill="#000" fill-rule="evenodd" d="M7.5123 4.0437C5.7257 2.793.8743 7.2603 1.0025 10.1179c.0732 1.632 1.6596 3.022 3.5968 3.3709.5011.1049 1.0708.1718 1.6889.1786 1.074.0118 2.2986-.1577 3.5701-.6273 2.6187-.8464 3.438-2.5051 3.3416-3.5756-.1311-1.4561-1.2987-1.7827-1.9844-1.9118.1855-.2743.6156-.9781 0-1.7182s-2.1689-.6037-3.4849.1936c.5323-.8664.3208-1.607-.2183-1.9844m3.3493 5.5005c.155 1.5406-1.6227 2.981-3.9708 3.2174-2.3481.2363-4.3773-.821-4.5324-2.3615-.155-1.5405 1.6227-2.981 3.9708-3.2173 2.3481-.2364 4.3773.8209 4.5324 2.3614" clip-rule="evenodd"/></svg>
